X:1
T:Sacrboro Fair 4
T:Scarborough Fair 
%%score ( 1 2 )
L:1/8
M:3/4
K:E
V:1 treble-8 nm="Classical Guitar" snm="Guit."
V:2 treble-8 
V:1
"^Arraged by John Savage\nCapo 10th fret\n" z c' e2 be- | ec' f2 be- | ec' g4 | z c' e2 be | %4
 z c' f2 ge | z c' e2 be- | ec' f2 ge |: z c' f2 f2- | fc' e2 b2 | ge Ba g2 | z c' e2 be | %11
 z c' f2 FG | z2 c'g e'g | f' e2 f' e'e | c'g d'g be | c'c' e2 be- | ec' f2 ge | z c' e2 be- | %18
 ec' f2 f'c' | f' c'2 c' f'2 | e'a ea c'a | c'a bg af | g e3 ag | a2 g3 e | z f2 a c'a | %25
 b e2 e ae | ge fB eG | z c' e2 be- | ec' f2 gf | z c' e2 be- | ec' f2 gf :| z c' e2 be- | %32
 ec' f2 be- | ec' g4 | [FAe]4 z2 |] %35
V:2
 F3 d3 | B3 d3 | A4 G2 | F3 d3 | F3 c3 | F3 d3 | F3 c3 |: F3 c2 F | c3 G d2 | E3 c B2 | F3 d3 | %11
 F3 c x2 | A2 A2 G2 | F2 c4 | A2 B2 G2 | F3 d3 | F3 c3 | F3 d3 | F3 c c2 | c2 f2 c2 | A4 A2 | %21
 A2 G2 F2 | E2 B2 cB | c2 B x E2 | F2 c2 F2 | E2 B2 E2 | G2 F2 E2 | F3 d3 | F3 c3 | F3 d3 | %30
 F3 c3 :| F3 d3 | B3 d3 | A4 G2 | C4 x2 |] %35

